usr/share/icons/big-icons/symbolic/status/network-cellular-offline-rtl-symbolic.svg

<svg width="16px" height="16px" version="1.1" viewBox="0 0 16 16" xmlns="http://www.w3.org/2000/svg">
 <path d="m4 2v4.0234a5.5 5.5 0 0 0-1 0.18555v-3.209h-1v3.6035a5.5 5.5 0 0 0-1 0.6543v-5.2578h3zm4 3v2.2676a5.5 5.5 0 0 0-1-0.6543v-0.61328h-1v0.21289a5.5 5.5 0 0 0-1-0.17578v-1.0371h3zm4 3v6h-2.6133a5.5 5.5 0 0 0 0.61328-2.5v1.5h1v-4h-1v2.5a5.5 5.5 0 0 0-1-3.1426v-0.35742h3zm4 3v3h-3v-3zm-1 1h-1v1h1z" fill="#363636"/>
 <path d="m4.5 7a4.5 4.5 0 0 1 4.5 4.5 4.5 4.5 0 0 1-4.5 4.5 4.5 4.5 0 0 1-4.5-4.5 4.5 4.5 0 0 1 4.5-4.5zm0 1a3.5 3.5 0 0 0-3.5 3.5 3.5 3.5 0 0 0 3.5 3.5 3.5 3.5 0 0 0 3.5-3.5 3.5 3.5 0 0 0-3.5-3.5zm1.4141 1.3789 0.70703 0.70703-1.4141 1.4141 1.4141 1.4141-0.70703 0.70703-1.4141-1.4141-1.4141 1.4141-0.70703-0.70703 1.4141-1.4141-1.4141-1.4141 0.70703-0.70703 1.4141 1.4141z" fill="#363636" style="paint-order:stroke fill markers"/>
</svg>

<svg xmlns="http://www.w3.org/2000/svg" width="16" height="16">
<path fill="#fcfcfc" d="M4 2v4.023a5.5 5.5 0 0 0-1 .186V3H2v3.603a5.5 5.5 0 0 0-1 .655V2zm4 3v2.268a5.5 5.5 0 0 0-1-.655V6H6v.213a5.5 5.5 0 0 0-1-.176V5zm4 3v6H9.387A5.5 5.5 0 0 0 10 11.5V13h1V9h-1v2.5a5.5 5.5 0 0 0-1-3.143V8zm4 3v3h-3v-3zm-1 1h-1v1h1z"/>
<path fill="#fcfcfc" d="M4.5 7A4.5 4.5 0 0 1 9 11.5 4.5 4.5 0 0 1 4.5 16 4.5 4.5 0 0 1 0 11.5 4.5 4.5 0 0 1 4.5 7m0 1A3.5 3.5 0 0 0 1 11.5 3.5 3.5 0 0 0 4.5 15 3.5 3.5 0 0 0 8 11.5 3.5 3.5 0 0 0 4.5 8m1.414 1.379.707.707L5.207 11.5l1.414 1.414-.707.707L4.5 12.207l-1.414 1.414-.707-.707L3.793 11.5l-1.414-1.414.707-.707L4.5 10.793z" style="paint-order:stroke fill markers"/>
</svg>
